X:902
T:Road to Errogie, The
R:reel
C:Adam Sutherland, Scotland
H:Also played in G, see #903
H:Originally composed in B
Z:id:hn-reel-902
M:C|
L:1/8
K:A
EA~A2 BABc | eA~A2 Bcec | ~f3a ecAc | ~B2cA BAFA |
EA~A2 BABc | eA~A2 Bcec | f3a ecAc |1 BAcB A2AF :|2 BAcB A2af ||
ea~a2 a2ba | bc'2b a3e | f2ea- aef2- | feae fecd |
ea~a2 a2ba | bc'2b a3e | f3a ecAc | BAcB A2af |
ea~a2 a2ba | bc'2b a3e | f2ea- aef2- | feae fecA |
EA~A2 BABc | eA~A2 Bcec | f3a ecAc | BAcB A2AF ||
P:variations
EA~A2 BABc | eA~A2 Bcea | f2af ecAc | BABc BAFA |
EA~A2 BABc | eA~A2 Bcea | f2af ecAc | BABc A2AF |
EA~A2 BABc | eA~A2 Bcec | f3e cBAc | ~B3c BAFA |
EA~A2 BABc | eA~A2 Bcec | f3e cBAc | ~B3c A2ce ||
a3a a2ba | c'3b a3e | f2ea- aef2- | feae fece |
a3a a2ba | c'3b a3e | f2af ecAc | BABc A2ce |
a3a a2ba | c'3b a3e | f2ea- aef2- | feae fecA |
EA~A2 BABc | eA~A2 Bcec | f2af ecAc | BAcB A2AF ||

